assets/icons/qvision/live_tv.svg

<svg xmlns="http://www.w3.org/2000/svg" height="24" viewBox="0 0 24 24" width="24"><path d="M0 0h24v24H0V0z" fill="none"/><path d="M21 6h-7.59l3.29-3.29L16 2l-4 4-4-4-.71.71L10.59 6H3c-1.1 0-2 .89-2 2v12c0 1.1.9 2 2 2h18c1.1 0 2-.9 2-2V8c0-1.11-.9-2-2-2zm0 14H3V8h18v12zM9 10v8l7-4z"/></svg>

<svg width="24" height="24" viewBox="0 0 24 24" fill="none" xmlns="http://www.w3.org/2000/svg">
<g clip-path="url(#clip0_147_5965)">
<path d="M21 6H13.41L16.7 2.71L16 2L12 6L8 2L7.29 2.71L10.59 6H3C1.9 6 1 6.89 1 8V20C1 21.1 1.9 22 3 22H21C22.1 22 23 21.1 23 20V8C23 6.89 22.1 6 21 6ZM21 20H3V8H21V20ZM9 10V18L16 14L9 10Z" fill="#323232"/>
</g>
<defs>
<clipPath id="clip0_147_5965">
<rect width="24" height="24" fill="white"/>
</clipPath>
</defs>
</svg>
